wp-content/themes/canvas/img/lightbulb.svg

<svg height="28" viewBox="0 0 18 28" width="18" xmlns="http://www.w3.org/2000/svg"><path d="m31.40625 36.09375h-2.34375v-7.0166016l-2.6367188-2.6367187 1.6552735-1.6552735 2.1533203 2.1533204 2.1533203-2.1533204 1.6552735 1.6552735-2.6367188 2.6367187zm5.5664062-16.1865234c1.3916016 1.5380859 2.109375 3.75 1.9042969 5.9326172-.2490234 2.6367187-1.1425781 3.9697265-2.1972656 5.3173828l-.1464844.1904296c-.5126953.6445313-.9082031 1.1425782-.9082031 2.2265626v2.5195312h-2.34375v-2.5195312c0-1.9042969.8203125-2.9296876 1.4208984-3.6914063l.131836-.1611328c.8789062-1.1279297 1.5234375-2.0800781 1.6992187-4.1015625.0585938-.5859375.131836-2.578125-1.2890625-4.1308594-1.0986328-1.2011719-2.7685547-1.8017578-5.0097656-1.8017578-2.2265625 0-3.9111328.6005859-4.9951172 1.8017578-1.4208984 1.5673828-1.3623047 3.5449219-1.3037109 4.1308594.1904297 2.0214844.8203125 2.9736328 1.6992187 4.1015625l.1464844.2050781c.6005859.7470703 1.40625 1.772461 1.40625 3.647461v2.5195312h-2.34375v-2.5195312c0-1.0546876-.3808594-1.5527344-.8789062-2.1826172l-.1757813-.234375c-1.0546875-1.3476563-1.9482422-2.6806641-2.1972656-5.3173828-.2050781-2.1826172.5126953-4.3945313 1.9042969-5.9326172 1.0693359-1.171875 3.1054687-2.5634766 6.7382812-2.5634766s5.6689453 1.3916016 6.7382812 2.5634766zm-12.1289062 20.4052734v-2.34375h10.78125v2.34375zm2.34375 4.21875v-2.34375h6.09375v2.34375z" fill="#93dddf" fill-rule="evenodd" transform="translate(-21 -17)"/></svg>

<?xml version="1.0" encoding="UTF-8"?>
<svg width="18px" height="28px" viewBox="0 0 18 28" version="1.1" xmlns="http://www.w3.org/2000/svg" xmlns:xlink="http://www.w3.org/1999/xlink">
    <!-- Generator: Sketch 51.2 (57519) - http://www.bohemiancoding.com/sketch -->
    <title>lightbulb</title>
    <desc>Created with Sketch.</desc>
    <defs></defs>
    <g id="Page-1" stroke="none" stroke-width="1" fill="none" fill-rule="evenodd">
        <g id="Concept-Two" transform="translate(-345.000000, -2407.000000)" fill="#93DDDF">
            <g id="Group-4" transform="translate(324.000000, 2390.000000)">
                <g id="Group">
                    <path d="M31.40625,36.09375 L29.0625,36.09375 L29.0625,29.0771484 L26.4257812,26.4404297 L28.0810547,24.7851562 L30.234375,26.9384766 L32.3876953,24.7851562 L34.0429688,26.4404297 L31.40625,29.0771484 L31.40625,36.09375 Z M36.9726562,19.9072266 C38.3642578,21.4453125 39.0820312,23.6572266 38.8769531,25.8398438 C38.6279297,28.4765625 37.734375,29.8095703 36.6796875,31.1572266 L36.5332031,31.3476562 C36.0205078,31.9921875 35.625,32.4902344 35.625,33.5742188 L35.625,36.09375 L33.28125,36.09375 L33.28125,33.5742188 C33.28125,31.6699219 34.1015625,30.6445312 34.7021484,29.8828125 L34.8339844,29.7216797 C35.7128906,28.59375 36.3574219,27.6416016 36.5332031,25.6201172 C36.5917969,25.0341797 36.6650391,23.0419922 35.2441406,21.4892578 C34.1455078,20.2880859 32.4755859,19.6875 30.234375,19.6875 C28.0078125,19.6875 26.3232422,20.2880859 25.2392578,21.4892578 C23.8183594,23.0566406 23.8769531,25.0341797 23.9355469,25.6201172 C24.1259766,27.6416016 24.7558594,28.59375 25.6347656,29.7216797 L25.78125,29.9267578 C26.3818359,30.6738281 27.1875,31.6992188 27.1875,33.5742188 L27.1875,36.09375 L24.84375,36.09375 L24.84375,33.5742188 C24.84375,32.5195312 24.4628906,32.0214844 23.9648438,31.3916016 L23.7890625,31.1572266 C22.734375,29.8095703 21.8408203,28.4765625 21.5917969,25.8398438 C21.3867188,23.6572266 22.1044922,21.4453125 23.4960938,19.9072266 C24.5654297,18.7353516 26.6015625,17.34375 30.234375,17.34375 C33.8671875,17.34375 35.9033203,18.7353516 36.9726562,19.9072266 Z M24.84375,40.3125 L24.84375,37.96875 L35.625,37.96875 L35.625,40.3125 L24.84375,40.3125 Z M27.1875,44.53125 L27.1875,42.1875 L33.28125,42.1875 L33.28125,44.53125 L27.1875,44.53125 Z" id="lightbulb"></path>
                </g>
            </g>
        </g>
    </g>
</svg>
